img/06_144.svg

<svg width="144" height="144" viewBox="0 0 144 144" fill="none" xmlns="http://www.w3.org/2000/svg">
<path d="M118.198 55.141C109.789 55.141 102.948 48.324 102.948 39.944C102.948 31.565 109.789 24.748 118.198 24.748C126.606 24.748 133.446 31.565 133.446 39.944C133.446 48.323 126.606 55.141 118.198 55.141ZM118.198 29.747C112.546 29.747 107.948 34.321 107.948 39.943C107.948 45.566 112.546 50.14 118.198 50.14C123.848 50.14 128.446 45.566 128.446 39.943C128.446 34.321 123.849 29.747 118.198 29.747Z" fill="#11305D"/>
<path d="M17.4132 143.5C15.1652 143.5 13.0502 142.627 11.4602 141.043C9.86621 139.454 8.99021 137.344 8.99121 135.099C8.99221 132.855 9.87021 130.745 11.4642 129.16L84.3882 56.5581L76.4192 48.4061L65.2532 58.1581C63.9352 59.3081 62.2462 59.9421 60.4972 59.9421C58.4182 59.9421 56.4392 59.0491 55.0672 57.4941C53.7932 56.0451 53.1612 54.1901 53.2882 52.2691C53.4132 50.3481 54.2832 48.5911 55.7362 47.3221L73.8482 31.5021C73.9182 31.4401 74.0042 31.3721 74.0912 31.3071C74.1392 31.2691 74.1882 31.2311 74.2382 31.1941C74.3302 31.1201 74.4882 31.0081 74.6492 30.9031L74.7632 30.8281C74.9782 30.6971 75.1212 30.6151 75.2692 30.5391C75.2922 30.5251 75.3742 30.4831 75.4532 30.4461C75.5942 30.3791 75.7262 30.3191 75.8622 30.2641C75.9202 30.2401 75.9762 30.2171 76.0332 30.1951C76.0552 30.1861 76.1202 30.1621 76.1422 30.1541C76.2842 30.1041 76.4232 30.0571 76.5662 30.0171C76.6092 30.0021 76.7052 29.9761 76.7982 29.9521C76.9232 29.9201 77.0532 29.8901 77.1852 29.8631L77.4142 29.8221C77.6072 29.7901 77.7502 29.7721 77.8902 29.7591C77.9732 29.7501 78.0882 29.7411 78.2052 29.7361C78.3162 29.7301 78.4242 29.7251 78.5302 29.7231C78.6892 29.7141 78.8052 29.7251 78.9262 29.7311C79.0222 29.7351 79.1222 29.7411 79.2262 29.7501C79.3532 29.7611 79.4882 29.7771 79.6222 29.7961C79.6782 29.8031 79.7782 29.8171 79.8782 29.8351C80.0252 29.8611 80.1712 29.8931 80.3172 29.9281L80.5712 29.9941C80.7022 30.0321 80.8422 30.0751 80.9802 30.1221C81.0652 30.1521 81.1312 30.1771 81.1902 30.2001C81.3472 30.2581 81.5022 30.3251 81.6592 30.3971C81.7612 30.4441 81.8272 30.4761 81.8922 30.5111C81.9832 30.5551 82.1332 30.6371 82.2802 30.7241C82.3412 30.7581 82.3972 30.7931 82.4542 30.8291C82.6082 30.9241 82.7592 31.0271 82.9072 31.1381C82.9402 31.1621 82.9872 31.1981 83.0392 31.2391C83.1812 31.3471 83.3152 31.4641 83.4522 31.5851C83.4682 31.6001 83.4982 31.6281 83.5292 31.6571C83.6222 31.7401 83.6982 31.8091 83.7702 31.8841L108.817 57.5001C110.101 58.8141 110.837 60.5931 110.864 62.4251C110.872 62.5081 110.877 62.5931 110.877 62.6791V77.6701L126.841 76.7261C131.142 76.4881 134.743 79.7391 134.993 83.9451C135.116 85.9981 134.429 87.9741 133.059 89.5101C131.692 91.0431 129.807 91.9541 127.752 92.0751L101.219 93.6431C96.9572 93.8851 93.3172 90.6321 93.0672 86.4251C93.0402 85.9581 93.0552 85.4891 93.1122 85.0271V83.2801L86.5032 89.8611L106.662 111.78C108.188 113.361 109.026 115.498 108.981 117.752C108.936 120.007 108.012 122.108 106.381 123.671C105 124.992 103.201 125.809 101.301 125.981C101.219 125.993 101.135 126 101.052 126.002L62.4052 127.428C58.1172 127.605 54.6042 124.288 54.4482 120.057C54.2922 115.837 57.6082 112.278 61.8412 112.121L83.2962 111.33L68.9172 95.6921L23.3622 141.047C21.7712 142.63 19.6592 143.5 17.4132 143.5ZM76.5542 42.4681C77.2042 42.4681 77.8532 42.7211 78.3412 43.2201L89.6952 54.8331C90.6542 55.8141 90.6442 57.3851 89.6722 58.3531L14.9922 132.704C14.3472 133.346 13.9922 134.197 13.9922 135.102C13.9922 136.007 14.3462 136.86 14.9902 137.501C16.2812 138.787 18.5432 138.789 19.8382 137.503L67.2342 90.3151C67.7142 89.8361 68.3452 89.5341 69.0522 89.5871C69.7322 89.6021 70.3762 89.8931 70.8372 90.3941L90.6492 111.937C91.3092 112.655 91.4912 113.692 91.1162 114.592C90.7402 115.491 89.8762 116.092 88.9012 116.127L62.0262 117.117C60.5492 117.172 59.3922 118.407 59.4462 119.872C59.4992 121.308 60.6742 122.434 62.1202 122.434L62.2222 122.432L100.73 121.011C100.749 121.009 100.768 121.008 100.787 121.006C101.599 120.949 102.339 120.622 102.927 120.059C103.592 119.422 103.968 118.568 103.987 117.652C104.005 116.738 103.664 115.87 103.026 115.209L81.2002 91.4791C80.2922 90.4911 80.3252 88.9621 81.2762 88.0151L93.8522 75.4941C94.5682 74.7801 95.6412 74.5681 96.5762 74.9571C97.5092 75.3451 98.1162 76.2561 98.1162 77.2661V85.2001C98.1162 85.3261 98.1072 85.4511 98.0892 85.5751C98.0602 85.7611 98.0522 85.9491 98.0622 86.1351C98.1472 87.5501 99.3332 88.6591 100.763 88.6601L100.929 88.6541L127.463 87.0861C128.188 87.0441 128.851 86.7241 129.331 86.1851C129.81 85.6501 130.05 84.9601 130.007 84.2461C129.923 82.8271 128.736 81.7171 127.306 81.7171L127.14 81.7221L108.529 82.8231C107.834 82.8601 107.168 82.6181 106.667 82.1461C106.166 81.6731 105.882 81.0151 105.882 80.3271V62.9401C105.869 62.8261 105.865 62.7101 105.869 62.5931C105.889 61.9911 105.668 61.4231 105.246 60.9911L80.2082 35.3871C80.1752 35.3571 80.1152 35.3061 80.0842 35.2741C80.0762 35.2701 80.0392 35.2351 79.9992 35.2051C79.9602 35.1771 79.9232 35.1471 79.8862 35.1161C79.8862 35.1111 79.8552 35.0961 79.8202 35.0771C79.7792 35.0521 79.7402 35.0261 79.7002 34.9991C79.7032 35.0091 79.6532 34.9781 79.5972 34.9501L79.4552 34.8861C79.4272 34.8761 79.3692 34.8541 79.3422 34.8431L78.7902 34.7301C78.7872 34.7291 78.6922 34.7241 78.6892 34.7241L78.5642 34.7221L78.4712 34.7271C78.4592 34.7291 78.3692 34.7361 78.3592 34.7371C78.3562 34.7371 78.2122 34.7581 78.2102 34.7581L78.0422 34.7951C78.0242 34.8001 77.9592 34.8181 77.9422 34.8231L77.8502 34.8541C77.8172 34.8681 77.7782 34.8811 77.7532 34.8921C77.7062 34.9111 77.6602 34.9311 77.6152 34.9531C77.5092 35.0091 77.4612 35.0381 77.4142 35.0661L77.3942 35.0811C77.3472 35.1111 77.3122 35.1351 77.2792 35.1611C77.2452 35.1901 77.2042 35.2211 77.1682 35.2481C77.1602 35.2551 77.1212 35.2841 77.1002 35.3011L59.0252 51.0871C58.5812 51.4761 58.3152 52.0121 58.2762 52.5971C58.2382 53.1821 58.4302 53.7461 58.8202 54.1891C59.5942 55.0671 61.0732 55.1691 61.9642 54.3921L74.9092 43.0851C75.3822 42.6721 75.9682 42.4681 76.5542 42.4681Z" fill="#11305D"/>
<path d="M45.5412 86.9253C44.8992 86.9253 44.2572 86.6793 43.7692 86.1893L24.9652 67.2863C23.9912 66.3073 23.9952 64.7243 24.9742 63.7513L38.6002 50.1953C39.0682 49.7293 39.7032 49.4673 40.3632 49.4673C40.3652 49.4673 40.3682 49.4673 40.3702 49.4673C41.0332 49.4693 41.6682 49.7343 42.1372 50.2033L60.9402 69.1073C61.4072 69.5773 61.6692 70.2133 61.6672 70.8773C61.6652 71.5413 61.4012 72.1753 60.9312 72.6433L47.3042 86.1973C46.8162 86.6833 46.1792 86.9253 45.5412 86.9253ZM30.2722 65.5323L45.5502 80.8903L55.6322 70.8623L40.3542 55.5033L30.2722 65.5323Z" fill="#7DBB00"/>
<path d="M47.861 73.9144C47.219 73.9144 46.577 73.6684 46.089 73.1774L37.985 65.0294C37.01 64.0504 37.015 62.4674 37.995 61.4944C38.973 60.5194 40.557 60.5254 41.53 61.5044L49.634 69.6524C50.608 70.6314 50.603 72.2144 49.624 73.1874C49.137 73.6724 48.499 73.9144 47.861 73.9144Z" fill="#7DBB00"/>
</svg>

<?xml version="1.0" encoding="utf-8"?>
<!-- Generator: Adobe Illustrator 15.0.2, SVG Export Plug-In . SVG Version: 6.00 Build 0)  -->
<!DOCTYPE svg PUBLIC "-//W3C//DTD SVG 1.1//EN" "http://www.w3.org/Graphics/SVG/1.1/DTD/svg11.dtd">
<svg version="1.1" id="Layer_1" xmlns="http://www.w3.org/2000/svg" xmlns:xlink="http://www.w3.org/1999/xlink" x="0px" y="0px"
	 width="144px" height="144px" viewBox="0 0 144 144" enable-background="new 0 0 144 144" xml:space="preserve">
<g>
	<g>
		<path d="M118.198,55.141c-8.409,0-15.25-6.817-15.25-15.197c0-8.379,6.841-15.196,15.25-15.196
			c8.408,0,15.248,6.817,15.248,15.196C133.446,48.323,126.606,55.141,118.198,55.141z M118.198,29.747
			c-5.652,0-10.25,4.574-10.25,10.196c0,5.623,4.598,10.197,10.25,10.197c5.65,0,10.248-4.574,10.248-10.197
			C128.446,34.321,123.849,29.747,118.198,29.747z"/>
		<path d="M17.413,143.5c-2.248,0-4.363-0.873-5.953-2.457c-1.594-1.589-2.47-3.699-2.469-5.944
			c0.001-2.244,0.879-4.354,2.473-5.939l72.924-72.602l-7.969-8.152l-11.166,9.752c-1.318,1.15-3.007,1.784-4.756,1.784
			c-2.079,0-4.058-0.893-5.43-2.448c-1.274-1.449-1.906-3.304-1.779-5.225c0.125-1.921,0.995-3.678,2.448-4.947l18.112-15.82
			c0.07-0.062,0.156-0.13,0.243-0.195c0.048-0.038,0.097-0.076,0.147-0.113c0.092-0.074,0.25-0.186,0.411-0.291l0.114-0.075
			c0.215-0.131,0.358-0.213,0.506-0.289c0.023-0.014,0.105-0.056,0.184-0.093c0.141-0.067,0.273-0.127,0.409-0.182
			c0.058-0.024,0.114-0.047,0.171-0.069c0.022-0.009,0.087-0.033,0.109-0.041c0.142-0.05,0.281-0.097,0.424-0.137
			c0.043-0.015,0.139-0.041,0.232-0.065c0.125-0.032,0.255-0.062,0.387-0.089l0.229-0.041c0.193-0.032,0.336-0.05,0.476-0.063
			c0.083-0.009,0.198-0.018,0.315-0.023c0.111-0.006,0.219-0.011,0.325-0.013c0.159-0.009,0.275,0.002,0.396,0.008
			c0.096,0.004,0.196,0.01,0.3,0.019c0.127,0.011,0.262,0.027,0.396,0.046c0.056,0.007,0.156,0.021,0.256,0.039
			c0.147,0.026,0.293,0.058,0.439,0.093l0.254,0.066c0.131,0.038,0.271,0.081,0.409,0.128c0.085,0.03,0.151,0.055,0.21,0.078
			c0.157,0.058,0.312,0.125,0.469,0.197c0.102,0.047,0.168,0.079,0.233,0.114c0.091,0.044,0.241,0.126,0.388,0.213
			c0.061,0.034,0.117,0.069,0.174,0.105c0.154,0.095,0.305,0.198,0.453,0.309c0.033,0.024,0.08,0.06,0.132,0.101
			c0.142,0.108,0.276,0.225,0.413,0.346c0.016,0.015,0.046,0.043,0.077,0.072c0.093,0.083,0.169,0.152,0.241,0.227l25.047,25.616
			c1.284,1.314,2.02,3.093,2.047,4.925c0.008,0.083,0.013,0.168,0.013,0.254V77.67l15.964-0.944
			c4.301-0.238,7.902,3.013,8.152,7.219c0.123,2.053-0.564,4.029-1.934,5.565c-1.367,1.533-3.252,2.444-5.307,2.565l-26.533,1.568
			c-4.262,0.242-7.902-3.011-8.152-7.218c-0.027-0.467-0.012-0.936,0.045-1.398V83.28l-6.609,6.581l20.159,21.919
			c1.526,1.581,2.364,3.718,2.319,5.972c-0.045,2.255-0.969,4.356-2.6,5.919c-1.381,1.321-3.18,2.138-5.08,2.31
			c-0.082,0.012-0.166,0.019-0.249,0.021l-38.647,1.426c-4.288,0.177-7.801-3.14-7.957-7.371c-0.156-4.22,3.16-7.779,7.393-7.936
			l21.455-0.791L68.917,95.692l-45.555,45.355C21.771,142.63,19.659,143.5,17.413,143.5z M76.554,42.468
			c0.65,0,1.299,0.253,1.787,0.752l11.354,11.613c0.959,0.981,0.949,2.552-0.023,3.52l-74.68,74.351c-0.645,0.642-1,1.493-1,2.398
			s0.354,1.758,0.998,2.399c1.291,1.286,3.553,1.288,4.848,0.002l47.396-47.188c0.48-0.479,1.111-0.781,1.818-0.728
			c0.68,0.015,1.324,0.306,1.785,0.807l19.812,21.543c0.66,0.718,0.842,1.755,0.467,2.655c-0.376,0.899-1.24,1.5-2.215,1.535
			l-26.875,0.99c-1.477,0.055-2.634,1.29-2.58,2.755c0.053,1.436,1.228,2.562,2.674,2.562l0.102-0.002l38.508-1.421
			c0.019-0.002,0.038-0.003,0.057-0.005c0.812-0.057,1.552-0.384,2.14-0.947c0.665-0.637,1.041-1.491,1.06-2.407
			c0.018-0.914-0.323-1.782-0.961-2.443l-21.826-23.73c-0.908-0.988-0.875-2.517,0.076-3.464l12.576-12.521
			c0.716-0.714,1.789-0.926,2.724-0.537c0.933,0.388,1.54,1.299,1.54,2.309v7.934c0,0.126-0.009,0.251-0.027,0.375
			c-0.029,0.186-0.037,0.374-0.027,0.56c0.085,1.415,1.271,2.524,2.701,2.525l0.166-0.006l26.534-1.568
			c0.725-0.042,1.388-0.362,1.868-0.901c0.479-0.535,0.719-1.225,0.676-1.939c-0.084-1.419-1.271-2.529-2.701-2.529l-0.166,0.005
			l-18.611,1.101c-0.695,0.037-1.361-0.205-1.862-0.677c-0.501-0.473-0.785-1.131-0.785-1.819V62.94
			c-0.013-0.114-0.017-0.23-0.013-0.347c0.02-0.602-0.201-1.17-0.623-1.602L80.208,35.387c-0.033-0.03-0.093-0.081-0.124-0.113
			c-0.008-0.004-0.045-0.039-0.085-0.069c-0.039-0.028-0.076-0.058-0.113-0.089c0-0.005-0.031-0.02-0.066-0.039
			c-0.041-0.025-0.08-0.051-0.12-0.078c0.003,0.01-0.047-0.021-0.103-0.049l-0.142-0.064c-0.028-0.01-0.086-0.032-0.113-0.043
			l-0.552-0.113c-0.003-0.001-0.098-0.006-0.101-0.006l-0.125-0.002l-0.093,0.005c-0.012,0.002-0.102,0.009-0.112,0.01
			c-0.003,0-0.147,0.021-0.149,0.021l-0.168,0.037c-0.018,0.005-0.083,0.023-0.1,0.028l-0.092,0.031
			c-0.033,0.014-0.072,0.027-0.097,0.038c-0.047,0.019-0.093,0.039-0.138,0.061c-0.106,0.056-0.154,0.085-0.201,0.113l-0.02,0.015
			c-0.047,0.03-0.082,0.054-0.115,0.08c-0.034,0.029-0.075,0.06-0.111,0.087c-0.008,0.007-0.047,0.036-0.068,0.053L59.025,51.087
			c-0.444,0.389-0.71,0.925-0.749,1.51c-0.038,0.585,0.154,1.149,0.544,1.592c0.774,0.878,2.253,0.98,3.144,0.203l12.945-11.307
			C75.382,42.672,75.968,42.468,76.554,42.468z"/>
	</g>
	<g>
		<path fill="#7DBB00" d="M45.541,86.925c-0.642,0-1.284-0.246-1.772-0.736L24.965,67.286c-0.974-0.979-0.97-2.562,0.009-3.535
			L38.6,50.195c0.468-0.466,1.103-0.728,1.763-0.728c0.002,0,0.005,0,0.007,0c0.663,0.002,1.298,0.267,1.767,0.736L60.94,69.107
			c0.467,0.47,0.729,1.106,0.727,1.77s-0.266,1.298-0.736,1.766L47.304,86.197C46.816,86.683,46.179,86.925,45.541,86.925z
			 M30.272,65.532L45.55,80.89l10.082-10.028L40.354,55.503L30.272,65.532z"/>
		<path fill="#7DBB00" d="M47.861,73.914c-0.642,0-1.284-0.246-1.772-0.737l-8.104-8.148c-0.975-0.979-0.97-2.562,0.01-3.535
			c0.978-0.975,2.562-0.969,3.535,0.01l8.104,8.148c0.974,0.979,0.969,2.562-0.01,3.535C49.137,73.672,48.499,73.914,47.861,73.914z
			"/>
	</g>
</g>
</svg>
